assets/footer/brands/uideck.svg

<svg width="161" height="38" viewBox="0 0 161 38" fill="none" xmlns="http://www.w3.org/2000/svg">
<g clip-path="url(#clip0_707_265)">
<path d="M32.4574 13.9979V25.9413C32.4574 28.3681 31.2102 30.6228 29.1582 31.913L19.5555 37.9523C19.3528 38.0813 19.0824 37.9338 19.0824 37.6942V33.4674C19.0824 32.7731 19.4265 32.128 20.004 31.741L26.1293 27.6554C26.9833 27.084 27.4994 26.1256 27.4994 25.0996V16.867C27.4994 16.2096 27.8496 15.6014 28.4209 15.2696L31.5358 13.4756C31.9474 13.2422 32.4574 13.5371 32.4574 14.0101V13.9979Z" fill="#625DF5"/>
<path d="M31.714 10.4228L18.1486 18.2561C17.1963 18.8029 16.6127 19.8166 16.6127 20.9164V37.4184C16.6127 37.658 16.3546 37.8055 16.1519 37.6826L3.5818 30.3716C1.36391 29.0814 0 26.716 0 24.148V14.1582C0 11.1478 1.60352 8.3647 4.2146 6.85948L15.6542 0.248821C16.2256 -0.0829404 16.926 -0.0829404 17.4974 0.248821L20.3603 1.90149C20.9747 2.25782 20.9747 3.14252 20.3603 3.49886L6.70282 11.3813C5.75054 11.9281 5.16688 12.9418 5.16688 14.0415V23.5397C5.16688 24.6395 5.75054 25.6532 6.70282 26.2L11.2308 28.8111C11.3291 28.8663 11.4458 28.7988 11.4458 28.6882V19.2514C11.4458 17.3346 12.4656 15.5713 14.1245 14.6129L27.2475 7.03765C27.8618 6.68131 28.6237 6.71203 29.2073 7.11138L31.7693 8.86234C32.3283 9.24325 32.2976 10.0788 31.7078 10.4228H31.714Z" fill="#625DF5"/>
<path d="M47.2319 8.7168H51.6129V20.6159C51.6129 21.5925 51.7465 22.4632 52.0137 23.2279C52.2809 23.9834 52.6771 24.6238 53.2022 25.1489C53.7366 25.6741 54.3954 26.0749 55.1785 26.3513C55.9617 26.6185 56.8738 26.7521 57.9149 26.7521C58.9468 26.7521 59.8543 26.6185 60.6375 26.3513C61.4298 26.0749 62.0886 25.6741 62.6138 25.1489C63.1481 24.6238 63.5489 23.9834 63.8161 23.2279C64.0833 22.4632 64.2169 21.5925 64.2169 20.6159V8.7168H68.5979V21.1411C68.5979 22.56 68.3583 23.8498 67.8792 25.0107C67.4001 26.1716 66.7045 27.1667 65.7924 27.9959C64.8803 28.8251 63.7608 29.4654 62.4341 29.9169C61.1166 30.3683 59.6102 30.5941 57.9149 30.5941C56.2196 30.5941 54.7086 30.3683 53.3819 29.9169C52.0644 29.4654 50.9496 28.8251 50.0374 27.9959C49.1253 27.1667 48.4297 26.1716 47.9506 25.0107C47.4715 23.8498 47.2319 22.56 47.2319 21.1411V8.7168Z" fill="white"/>
<path d="M71.6245 8.7168H76.0331V30.3177H71.6245V8.7168Z" fill="white"/>
<path d="M78.0923 22.233C78.0923 20.9339 78.3365 19.7638 78.8248 18.7227C79.3131 17.6723 79.9857 16.7786 80.8425 16.0416C81.7086 15.2953 82.7313 14.724 83.9106 14.3279C85.0992 13.9225 86.3844 13.7198 87.7664 13.7198C88.3561 13.7198 88.9366 13.7566 89.5078 13.8303C90.0882 13.904 90.641 14.0054 91.1662 14.1344C91.7006 14.2634 92.1981 14.42 92.6588 14.6043C93.1287 14.7793 93.5433 14.9728 93.9026 15.1847V7.39014H97.9934V30.3178H93.9026V28.7837C93.5433 29.0325 93.1194 29.2674 92.6311 29.4886C92.1428 29.7097 91.6177 29.9032 91.0556 30.069C90.4936 30.2348 89.9086 30.3638 89.3005 30.456C88.7016 30.5573 88.1073 30.608 87.5177 30.608C86.1357 30.608 84.8642 30.4053 83.7033 29.9999C82.5516 29.5945 81.5612 29.0233 80.732 28.2862C79.9028 27.5491 79.2532 26.6692 78.7833 25.6466C78.3227 24.6147 78.0923 23.4768 78.0923 22.233ZM82.3904 22.233C82.3904 22.8871 82.5194 23.5044 82.7774 24.0849C83.0446 24.6653 83.4223 25.1767 83.9106 25.6189C84.4081 26.0519 85.0024 26.3975 85.6934 26.6554C86.3936 26.9042 87.1768 27.0286 88.0428 27.0286C88.5957 27.0286 89.1485 26.9779 89.7013 26.8766C90.2541 26.766 90.7838 26.614 91.2906 26.4205C91.8065 26.227 92.2856 25.9921 92.7279 25.7157C93.1793 25.4393 93.5709 25.1306 93.9026 24.7897V19.1373C93.488 18.8056 93.0504 18.5246 92.5897 18.2942C92.129 18.0639 91.6591 17.875 91.18 17.7276C90.7009 17.5802 90.2172 17.4742 89.7289 17.4097C89.2406 17.336 88.7661 17.2992 88.3054 17.2992C87.3657 17.2992 86.5272 17.4282 85.7902 17.6861C85.0623 17.9349 84.445 18.2804 83.9383 18.7227C83.4407 19.1649 83.0584 19.6855 82.7912 20.2843C82.524 20.8832 82.3904 21.5328 82.3904 22.233Z" fill="white"/>
<path d="M100.467 22.1085C100.467 21.0029 100.693 19.9479 101.144 18.9437C101.596 17.9302 102.245 17.0365 103.093 16.2626C103.941 15.4886 104.977 14.8713 106.203 14.4107C107.437 13.95 108.838 13.7197 110.404 13.7197C111.961 13.7197 113.361 13.9546 114.605 14.4245C115.858 14.8852 116.918 15.5209 117.784 16.3317C118.659 17.1425 119.327 18.096 119.788 19.1924C120.258 20.2888 120.493 21.4636 120.493 22.7166C120.493 22.8732 120.488 23.0437 120.479 23.2279C120.479 23.403 120.47 23.5642 120.451 23.7116H105.028C105.203 24.1999 105.484 24.6468 105.871 25.0522C106.267 25.4576 106.76 25.8077 107.35 26.1025C107.939 26.3974 108.621 26.6277 109.395 26.7935C110.169 26.9502 111.026 27.0285 111.966 27.0285C112.905 27.0285 113.84 26.9317 114.771 26.7382C115.702 26.5356 116.591 26.2822 117.438 25.9781L118.82 29.1015C118.286 29.3503 117.742 29.5714 117.19 29.7649C116.646 29.9491 116.075 30.1058 115.476 30.2347C114.886 30.3545 114.264 30.4467 113.61 30.5112C112.965 30.5756 112.283 30.6079 111.565 30.6079C109.731 30.6079 108.124 30.3868 106.742 29.9445C105.359 29.5023 104.203 28.8988 103.273 28.1341C102.342 27.3694 101.642 26.4711 101.172 25.4392C100.702 24.4073 100.467 23.297 100.467 22.1085ZM116.153 20.5192C116.006 20.0677 115.775 19.6485 115.462 19.2615C115.158 18.8654 114.776 18.5245 114.315 18.2389C113.854 17.944 113.32 17.7137 112.712 17.5478C112.104 17.382 111.436 17.2991 110.708 17.2991C109.934 17.2991 109.229 17.3866 108.593 17.5617C107.958 17.7367 107.4 17.9717 106.921 18.2665C106.442 18.5613 106.041 18.9022 105.719 19.2892C105.406 19.6762 105.175 20.0861 105.028 20.5192H116.153Z" fill="white"/>
<path d="M122.151 22.2052C122.151 21.0075 122.368 19.8927 122.801 18.8608C123.243 17.8196 123.883 16.9213 124.722 16.1658C125.569 15.4011 126.601 14.8022 127.817 14.3692C129.043 13.9362 130.438 13.7197 132.005 13.7197C132.687 13.7197 133.373 13.7611 134.064 13.844C134.755 13.927 135.418 14.0467 136.054 14.2034C136.699 14.3508 137.302 14.5304 137.864 14.7424C138.427 14.9451 138.915 15.1708 139.329 15.4195L137.436 18.5014C136.542 18.0868 135.695 17.7828 134.893 17.5893C134.101 17.3958 133.295 17.2991 132.475 17.2991C131.535 17.2991 130.692 17.4235 129.946 17.6722C129.199 17.9118 128.564 18.2527 128.038 18.6949C127.522 19.128 127.126 19.6439 126.85 20.2428C126.583 20.8324 126.449 21.4774 126.449 22.1776C126.449 22.8778 126.592 23.5274 126.877 24.1262C127.172 24.7159 127.582 25.2272 128.107 25.6603C128.642 26.0841 129.282 26.4204 130.028 26.6691C130.784 26.9087 131.622 27.0285 132.544 27.0285C133.557 27.0285 134.511 26.8857 135.405 26.6C136.307 26.3144 137.146 25.9321 137.92 25.453L139.813 28.5349C139.325 28.8297 138.795 29.1061 138.224 29.3641C137.653 29.6128 137.04 29.8294 136.386 30.0136C135.741 30.1979 135.059 30.3407 134.34 30.4421C133.631 30.5526 132.894 30.6079 132.129 30.6079C130.572 30.6079 129.176 30.396 127.942 29.9722C126.707 29.5483 125.661 28.9633 124.804 28.217C123.948 27.4615 123.289 26.5724 122.828 25.5497C122.377 24.527 122.151 23.4122 122.151 22.2052Z" fill="white"/>
<path d="M142.467 7.39014H146.557V20.9339L154.186 14.01H160.447L151.92 21.6387L160.986 30.3178H154.849L148.782 24.4442L146.557 26.4343V30.3178H142.467V7.39014Z" fill="white"/>
</g>
<defs>
<clipPath id="clip0_707_265">
<rect width="161" height="38" fill="white"/>
</clipPath>
</defs>
</svg>

<svg xmlns="http://www.w3.org/2000/svg" width="161" height="38" fill="none"><g clip-path="url(#a)"><path fill="#625DF5" d="M32.457 13.998V25.94a7.054 7.054 0 0 1-3.299 5.972l-9.603 6.04a.309.309 0 0 1-.473-.259v-4.227c0-.694.345-1.339.922-1.726l6.125-4.086A3.079 3.079 0 0 0 27.5 25.1v-8.233c0-.657.35-1.266.922-1.597l3.115-1.794a.616.616 0 0 1 .921.534v-.012Z"/><path fill="#625DF5" d="m31.714 10.423-13.565 7.833a3.063 3.063 0 0 0-1.536 2.66v16.502c0 .24-.258.388-.461.265l-12.57-7.311A7.195 7.195 0 0 1 0 24.148v-9.99A8.422 8.422 0 0 1 4.215 6.86L15.655.25a1.831 1.831 0 0 1 1.842 0L20.36 1.9a.923.923 0 0 1 0 1.598L6.703 11.38a3.063 3.063 0 0 0-1.536 2.66v9.499c0 1.1.584 2.113 1.536 2.66l4.528 2.611a.142.142 0 0 0 .215-.123V19.25c0-1.916 1.02-3.68 2.678-4.638l13.123-7.575a1.837 1.837 0 0 1 1.96.073l2.562 1.751a.923.923 0 0 1-.061 1.56h.006Z"/><path fill="#fff" d="M47.232 8.717h4.38v11.899c0 .977.134 1.847.402 2.612a5.057 5.057 0 0 0 1.188 1.92c.535.526 1.193.927 1.977 1.203.783.268 1.695.401 2.736.401 1.032 0 1.94-.133 2.723-.4.792-.277 1.45-.678 1.976-1.203a4.974 4.974 0 0 0 1.202-1.921c.267-.765.4-1.636.4-2.612v-11.9h4.382v12.425c0 1.419-.24 2.709-.719 3.87a8.217 8.217 0 0 1-2.087 2.985c-.912.83-2.031 1.47-3.358 1.92-1.317.452-2.824.678-4.52.678-1.694 0-3.205-.226-4.532-.677-1.318-.452-2.432-1.092-3.345-1.921a8.217 8.217 0 0 1-2.086-2.985c-.48-1.161-.72-2.451-.72-3.87V8.717Zm24.392 0h4.41v21.6h-4.41v-21.6Zm6.468 13.516c0-1.3.245-2.47.733-3.51a7.862 7.862 0 0 1 2.017-2.681c.867-.747 1.89-1.318 3.069-1.714 1.188-.405 2.473-.608 3.855-.608.59 0 1.17.037 1.742.11.58.074 1.133.175 1.658.304.535.13 1.032.286 1.493.47.47.175.884.369 1.244.58V7.39h4.09v22.928h-4.09v-1.534c-.36.248-.784.483-1.272.705-.488.22-1.013.414-1.575.58-.562.166-1.147.295-1.755.387-.6.101-1.194.152-1.783.152-1.382 0-2.654-.203-3.815-.608-1.151-.405-2.142-.977-2.971-1.714a7.91 7.91 0 0 1-1.949-2.64c-.46-1.031-.69-2.17-.69-3.413Zm4.298 0c0 .654.13 1.271.387 1.852.268.58.645 1.092 1.134 1.534a5.743 5.743 0 0 0 1.782 1.036c.7.25 1.484.374 2.35.374.553 0 1.105-.051 1.658-.152a9.882 9.882 0 0 0 1.59-.456 8.014 8.014 0 0 0 1.437-.705 5.997 5.997 0 0 0 1.175-.926v-5.653a7.388 7.388 0 0 0-1.313-.843 9.2 9.2 0 0 0-1.41-.566 8.883 8.883 0 0 0-1.451-.318 9.535 9.535 0 0 0-1.424-.11c-.94 0-1.778.128-2.515.386-.728.249-1.345.594-1.852 1.037-.497.442-.88.963-1.147 1.561a4.728 4.728 0 0 0-.4 1.949Zm18.077-.125c0-1.105.226-2.16.677-3.164a8.027 8.027 0 0 1 1.949-2.681c.848-.774 1.884-1.392 3.11-1.852 1.234-.461 2.635-.691 4.201-.691 1.557 0 2.957.235 4.201.704 1.253.461 2.313 1.097 3.179 1.908a8.18 8.18 0 0 1 2.004 2.86 8.85 8.85 0 0 1 .705 3.525c0 .156-.005.327-.014.51 0 .176-.009.337-.028.485h-15.423c.175.488.456.935.843 1.34.396.406.889.756 1.479 1.05a8.572 8.572 0 0 0 2.045.692 13.04 13.04 0 0 0 2.571.235c.939 0 1.874-.097 2.805-.29.931-.203 1.82-.457 2.667-.76l1.382 3.123a17.89 17.89 0 0 1-1.63.663 15.52 15.52 0 0 1-1.714.47c-.59.12-1.212.212-1.866.276a20.43 20.43 0 0 1-2.045.097c-1.834 0-3.441-.221-4.823-.663-1.383-.443-2.539-1.046-3.469-1.81-.931-.766-1.631-1.664-2.101-2.696a7.94 7.94 0 0 1-.705-3.33Zm15.686-1.589a3.92 3.92 0 0 0-.691-1.257 4.243 4.243 0 0 0-1.147-1.023 5.776 5.776 0 0 0-1.603-.691 7.604 7.604 0 0 0-2.004-.249 7.96 7.96 0 0 0-2.115.263 6.44 6.44 0 0 0-1.672.704c-.479.295-.88.636-1.202 1.023a3.995 3.995 0 0 0-.691 1.23h11.125Zm5.998 1.686c0-1.197.217-2.312.65-3.344a7.556 7.556 0 0 1 1.921-2.695c.847-.765 1.879-1.364 3.095-1.797 1.226-.433 2.621-.65 4.188-.65a17.268 17.268 0 0 1 4.049.484c.645.148 1.248.327 1.81.54a8.322 8.322 0 0 1 1.465.676l-1.893 3.082a13.747 13.747 0 0 0-2.543-.912 10.151 10.151 0 0 0-2.418-.29c-.94 0-1.783.125-2.529.373-.747.24-1.382.58-1.908 1.023a4.41 4.41 0 0 0-1.188 1.548 4.636 4.636 0 0 0-.401 1.935c0 .7.143 1.35.428 1.948.295.59.705 1.101 1.23 1.534.535.424 1.175.76 1.921 1.01.756.239 1.594.358 2.516.358a9.346 9.346 0 0 0 2.861-.428 11.156 11.156 0 0 0 2.515-1.147l1.893 3.082c-.488.295-1.018.571-1.589.83a15.136 15.136 0 0 1-3.884 1.078c-.709.11-1.446.165-2.211.165-1.557 0-2.953-.212-4.187-.636-1.235-.424-2.281-1.009-3.138-1.755a7.798 7.798 0 0 1-1.976-2.667c-.451-1.023-.677-2.138-.677-3.345ZM142.467 7.39h4.09v13.544l7.629-6.924h6.261l-8.527 7.629 9.066 8.679h-6.137l-6.067-5.874-2.225 1.99v3.884h-4.09V7.39Z"/></g><defs><clipPath id="a"><path fill="#fff" d="M0 0h161v38H0z"/></clipPath></defs></svg>
